!!!!SEGMENT: pl-kk--kk-i-6--038-002_anonim--missa-de-beata-virgine-maria-et-in-terra.krn
!!!cenid: 16xx:1022
!!!COM: Anonim
!!!COM-rismid: pe30004985
!!!CDT:
!!!CNT:
!!!OPR: Missa de Beata Virgine Maria
!!!OTL: Et in terra
!!!OMV: 002
!!!PDT:
!!!AGN: Sacred; Mass
!!!SMS-siglum: PL-Kk
!!!SMS-shelfmark: Kk.I.6
!!!SMS-shelfwork: 038-002 M
!!!SMS-variant:
!!!SMS-altvar:
!!!NIFC-rismid: 1001136486
!!!URL-scan: http://repozytorium.nifc.pl/skany/pl-kk-nut--i-6
!!!ONB-nifc: UWAGA: C (skan 0053-0054, s. 102-104), T (skan 0165-0166, s. 124-126), B (skan 0274-0275, s. 130-132) Części Mszy: 1. Kyrie, 2. Et in terra, 3. Patrem, 4. Sanctus, 5. Agnus Dei. Uwaga: zmienna liczba głosów w niektórych ustępach
!!!key:
**kern	**text	**kern	**text	**kern	**text
*part3	*part3	*part2	*part2	*part1	*part1
*staff3	*staff3	*staff2	*staff2	*staff1	*staff1
*Iempty	*	*Itenor	*	*Ivox	*
*I"Baſsus.	*	*I"Tenor.	*	*I"Cantus.	*
*I'B	*	*I'T	*	*I'S	*
*clefC4	*	*clefC3	*	*clefC3	*
*k[]	*	*k[]	*	*k[]	*
*G:	*	*G:	*	*G:	*
*M2/1	*	*M2/1	*	*M2/1	*
*met(C|)	*	*met(C|)	*	*met(C|)	*
=1-	=1-	=1-	=1-	=1-	=1-
00r	.	1d	ET	00r	.
.	.	2e\	in	.	.
.	.	2B/	ter-	.	.
=2-	=2-	=2-	=2-	=2-	=2-
.	.	2c/	.	.	.
.	.	2d\	-ra	.	.
.	.	2G/	pax	.	.
.	.	2c/	Et	.	.
=3-	=3-	=3-	=3-	=3-	=3-
1rA	.	2F/	in	0rc	.
.	.	2.A/	ter-	.	.
2rG	.	.	.	.	.
.	.	8G/L	.	.	.
.	.	8A/J	.	.	.
2G/	ET	2B/	.	.	.
=4-	=4-	=4-	=4-	=4-	=4-
2A/	in	2A/	-ra	1rc	.
2E/	te-	2.c/	pax	.	.
2F/	.	.	.	2rB	.
.	.	8B/L	.	.	.
.	.	8A/J	.	.	.
!	!	!	!	!LO:TX:t=P:problem=kreska pseudotaktowa	!
2G/	-rra	2B/	.	2d\	ET
=5-	=5-	=5-	=5-	=5-	=5-
*	*	*	*ij	*	*
!LO:TX:t=P:rozdzielacz słów:global	!	!	!	!	!
2C,</	pax	2c/	Et	2e\	in
!	!	!	!	!LO:TX:t=P:problem=kreska pseudotaktowa	!
1E	Et	1G	in	2B/	ter-
.	.	.	.	2c/	.
*custos:E	*	*custos:e	*	*	*
!	!	!	!	!LO:TX:t=P:problem=kreska pseudotaktowa	!
2D/	in	2A/	ter-	2d\	-ra
!LO:LB:g=original	!	!LO:LB:g=original	!	!	!
=6-	=6-	=6-	=6-	=6-	=6-
2E/	ter-	2.e\	.	2G/	pax
2C/	-ra	.	.	2.c/	ho-
.	.	4e\	-ra	.	.
2G/	pax	2d\	pax	.	.
*	*	*	*Xij	*	*
.	.	.	.	8B/L	.
.	.	.	.	8A/J	.
!	!	!	!	!LO:TX:t=P:problem=kreska pseudotaktowa	!
2G/	ho-	2g\	ho-	2B/	.
=7-	=7-	=7-	=7-	=7-	=7-
2.A/	-mi-	2.e\	-mi-	2.c/	-mi-
!	!	!LO:TX:b:t=P:problem=# below	!	!LO:TX:t=P:problem=kreska pseudotaktowa	!
4A/	-ni-	4f#X\	-ni-	4c/	-ni-
2G,</	-bus	1g	-bus	2d\	-bus
1c\	bo-	.	.	1e\	bo-
=8-	=8-	=8-	=8-	=8-	=8-
.	.	1r	.	.	.
!	!	!	!	!LO:TX:t=P:problem=kreska pseudotaktowa	!
2A/	-nae	.	.	2c/	-nae
*	*	*	*	*custos:e	*
2B\	Vo-	1.g	bo-	2d\	Vo-
!	!	!	!	!LO:LB:g=original	!
2c\	-lun-	.	.	2e\	-lun-
=9-	=9-	=9-	=9-	=9-	=9-
!	!	!	!	!LO:TX:t=P:problem=kreska pseudotaktowa	!
1A	-ta-	.	.	1c	-ta-
!	!	!LO:TX:b:t=P:problem=# below	!	!	!
.	.	2f#X\	-nae	.	.
2G,</	-tis	2g\	Vo-	2d\	-tis
*	*ij	*	*	*	*
2C/	bo-	2e\	-lun-	1g\	bo-
=10-	=10-	=10-	=10-	=10-	=10-
1D	-nae	2.d\	-ta-	.	.
!	!	!	!	!LO:TX:b:t=P:problem=# below	!
!	!	!	!	!LO:TX:t=P:problem=kreska pseudotaktowa	!
.	.	.	.	2f#X\	-nae
.	.	4c/	.	.	.
2E/	Vo-	2B/	.	2g\	Vo-
2C/	-lun-	2.c/	.	2e\	-lun-
=11-	=11-	=11-	=11-	=11-	=11-
*custos:D	*	*	*	*	*
!	!	!	!	!LO:TX:t=P:problem=kreska pseudotaktowa	!
1G	-ta-	.	.	1d	-ta-
.	.	8B/L	.	.	.
.	.	8A/J	.	.	.
.	.	2B/	.	.	.
!LO:LB:g=original	!	!	!	!	!
1C	-tis	2c/	-tis	2e\	-tis
*	*Xij	*	*	*	*
.	.	2G/	lau-	2e\	lau-
=12-	=12-	=12-	=12-	=12-	=12-
*	*	*custos:A	*	*	*
1rG	.	2A/	-da-	2c/	-da-
!	!	!LO:LB:g=original	!	!	!
.	.	2A/	-mus	2c/	-mus
2rF	.	2G/	te	1d	te
2G/	be-	2B/	Be-	.	.
=13-	=13-	=13-	=13-	=13-	=13-
2F/	-ne-	2A/	-ne-	0r	.
2.E/	-di-	2.c/	-di-	.	.
4D/	-ci-	4B/	-ci-	.	.
!LO:TX:b:t=P:problem=# below	!	!	!	!	!
2F#X/	-m(us)	2A/	-mus	.	.
=14-	=14-	=14-	=14-	=14-	=14-
2G,</	te,	2G/	te	2re	.
1C	A-	1c	A-	1e	A-
!	!	!	!	!LO:TX:t=P:problem=kreska pseudotaktowa	!
2C/	-do-	2c/	-do-	2e\	-do-
=15-	=15-	=15-	=15-	=15-	=15-
2Fny/	-ra-	2.c/	-ra-	2fny\	-ra-
2A/	-m(us)	.	.	2c/	-mus
.	.	4c/	-mus	.	.
1G	te.	2B/	te	2d\	te
*	*	*	*	*custos:c	*
!	!	!	!	!LO:TX:t=P:problem=kreska pseudotaktowa	!
.	.	2d\	Glo-	2G/	Glo-
!	!	!	!	!LO:LB:g=original	!
=16-	=16-	=16-	=16-	=16-	=16-
2rG	.	2e\	-ri-	2.c/	-ri-
2G/	Glo-	2d\	-fi-	.	.
.	.	.	.	4B/	-fi-
2A/	-ri-	2.c/	-ca-	4c/	-ca-
.	.	.	.	4A/	-mus
2G/	-fi-	.	.	2d\	te
.	.	4B/	.	.	.
=17-	=17-	=17-	=17-	=17-	=17-
2.F/	-ca-	2A/	.	0r	.
.	.	2c/	mus	.	.
*custos:D	*	*	*	*	*
4E/	.	.	.	.	.
*	*	*custos:c	*	*	*
!LO:LB:g=original	!	!	!	!	!
2D/	.	2d\	-te	.	.
!	!	!LO:LB:g=original	!	!	!
2F/	-mus	2c/	glo-	.	.
=18-	=18-	=18-	=18-	=18-	=18-
2G,</	te	2B/	-ri-	2r	.
*	*ij	*	*	*	*ij
!	!	!	!	!LO:TX:t=P:problem=kreska pseudotaktowa	!
2G/	Glo-	2B/	-fi-	2G/	Glo-
2D/	-ri-	2.A/	-ca-	2d\	-ri-
!	!	!	!	!LO:TX:t=P:problem=kreska pseudotaktowa	!
2F/	-fi-	.	.	2c/	-fi-
.	.	4B/	.	.	.
=19-	=19-	=19-	=19-	=19-	=19-
1C	-ca-	1c	-mus	1e	-ca-
1D	-mus	1A	te	1d	-mus
=20-	=20-	=20-	=20-	=20-	=20-
1G,<	te	2G/	.	0B	te
*	*Xij	*	*	*	*Xij
.	.	1d	Gra-	.	.
1G	Gra-	.	.	.	.
.	.	2e\	-ti-	.	.
=21-	=21-	=21-	=21-	=21-	=21-
!	!	!LO:TX:b:t=P:problem=# below	!	!	!
2A/	-ti-	2f#X\	-as	0r	.
2B\	-as	2.g\	a-	.	.
1.c	a-	.	.	.	.
.	.	4fny\	.	.	.
.	.	4e\	.	.	.
.	.	4d\	.	.	.
=22-	=22-	=22-	=22-	=22-	=22-
.	.	2e\	.	2r	.
!	!	!	!	!LO:TX:t=P:problem=kreska pseudotaktowa	!
2B\	-gi-	2d\	-gi-	2d\	Gra-
1A	-mus	1c	-mus	2e\	-ti-
!	!	!	!	!LO:TX:t=P:problem=kreska pseudotaktowa	!
.	.	.	.	2f#X\	-as
=23-	=23-	=23-	=23-	=23-	=23-
*lig	*	*lig	*	*	*
1G	ti-	1d	ti-	2.g\	a-
!	!	!	!	!LO:TX:t=P:problem=kreska pseudotaktowa	!
.	.	.	.	4g\	-gi-
*custos:d	*	*	*	*	*
1c	.	1e	.	2g\	-mus
.	.	.	.	2.g\	ti-
*Xlig	*	*Xlig	*	*	*
!LO:LB:g=original	!	!	!	!	!
=24-	=24-	=24-	=24-	=24-	=24-
*	*	*custos:d	*	*	*
2d,<\	-bi	1d	-bi	.	.
.	.	.	.	8f#X\L	.
*	*	*	*	*custos:f	*
.	.	.	.	8e\J	.
!	!	!	!	!LO:LB:g=original	!
!	!	!	!	!LO:TX:t=P:problem=kreska pseudotaktowa	!
!	!	!	!	!LO:TX:a:t=P:problem=# above	!
2D/	pro-	.	.	2f#X\	.
!	!	!LO:LB:g=original	!	!	!
2E/	.	2r	.	2g\	-bi
2.G/	-pter	2d\	pro-	4G/	.
!	!	!	!	!LO:TX:t=P:problem=kreska pseudotaktowa	!
.	.	.	.	4A/	.
=25-	=25-	=25-	=25-	=25-	=25-
.	.	2e\	-pter	4B/	pro-
4F/	.	.	.	4c/	.
4F/	mag-	2f\	mag-	2.d\	-pter
8E/L	.	.	.	.	.
8D/J	.	.	.	.	.
1E	.	2g\	.	.	.
.	.	.	.	8c\L	.
.	.	.	.	8B\J	.
!	!	!	!	!LO:TX:t=P:problem=kreska pseudotaktowa	!
.	.	2G/	-nam	2c/	.
=26-	=26-	=26-	=26-	=26-	=26-
*	*	*	*ij	*	*
2D,</	-nam	2A/	pro-	2.d\	pro-
2G/	pro-	2B/	-pter	.	.
!	!	!	!	!LO:TX:t=P:problem=kreska pseudotaktowa	!
.	.	.	.	4e\	.
2A/	.	2c/	mag-	2fny\	-pter
2B\	-pter	2d\	-nam	1g\	mag-
*	*	*	*Xij	*	*
=27-	=27-	=27-	=27-	=27-	=27-
2.c\	mag-	2.e\	glo-	.	.
!	!	!	!	!LO:TX:t=P:problem=kreska pseudotaktowa	!
.	.	.	.	2g\	-nam
4B\	.	4d\	-ri-	.	.
2A/	.	2c/	-am	2f\	glo-
2G,</	-nam	2d\	tu-	2g\	-ri-
=28-	=28-	=28-	=28-	=28-	=28-
2.A/	glo-	1.c	-am	1e	-(am)
*custos:F	*	*	*	*	*
!LO:TX:b:t=riam:w funkcji custosa	!	!	!	!	!
4G/	.	.	.	.	.
!LO:PB:g=original	!	!	!	!	!
2F/	.	.	.	1rg	.
2E/	.	1c/	pro-	.	.
=29-	=29-	=29-	=29-	=29-	=29-
2.F/	.	.	.	2rf	.
.	.	2c/	-pter	1f	glo-
4E/	.	.	.	.	.
2D/	.	2d\	mag-	.	.
*	*	*	*	*custos:a	*
!	!	!	!	!LO:TX:t=P:problem=kreska pseudotaktowa	!
2C/	-ri-	2e\	-nam	2g\	-ri-
!	!	!	!	!LO:LB:g=original	!
=30-	=30-	=30-	=30-	=30-	=30-
1F	-am	2.f\	gl(o-	1a	-am
*	*	*custos:e	*	*	*
.	.	4f\	-ri-	.	.
!	!	!LO:PB:g=original	!	!	!
1G	tu-	2e\	-am)	1g	tu-
.	.	2d\	tu-	.	.
=31-	=31-	=31-	=31-	=31-	=31-
1C,<	-am	2e\	-am	1g	-am
.	.	1g	Do-	.	.
1.c	Do-	.	.	1rg	.
.	.	2f\	.	.	.
=32-	=32-	=32-	=32-	=32-	=32-
.	.	2e\	-mi-	1.g	Do-
2B\	-mi-	2d\	-ne	.	.
1A	-ne	1c	De-	.	.
!	!	!	!	!LO:TX:t=P:problem=kreska pseudotaktowa	!
!	!	!	!	!LO:TX:b:t=P:problem=# below	!
.	.	.	.	2f#X\	-mi-
=33-	=33-	=33-	=33-	=33-	=33-
2.G/	De-	1d	-us	2g\	-ne
.	.	.	.	4G/	De-
!	!	!	!	!LO:TX:t=P:problem=kreska pseudotaktowa	!
4F/	.	.	.	4A/	.
2E/	.	0r	.	4B/	.
.	.	.	.	4c/	.
!	!	!	!	!LO:TX:t=P:problem=kreska pseudotaktowa	!
2D,</	-us	.	.	2d\	.
=34-	=34-	=34-	=34-	=34-	=34-
!	!	!	!	!LO:TX:b:t=P:problem=# below	!
2A/	Rex	.	.	2c#X/	-us
!	!	!	!	!LO:TX:t=P:problem=kreska pseudotaktowa	!
2B-X\	cae-	.	.	2d\	Rex
1A	-le-	1r	.	1e	cae-
=35-	=35-	=35-	=35-	=35-	=35-
*custos:A	*	*	*	*	*
1D	-ſtis	2r	.	1.fny	-leſ-
.	.	1d	Rex	.	.
!LO:LB:g=original	!	!	!	!	!
2r	.	.	.	.	.
!	!	!	!	!LO:TX:t=P:problem=kreska pseudotaktowa	!
2A/	Rex	2c/	cae-	2e\	-tis
=36-	=36-	=36-	=36-	=36-	=36-
*	*	*lig	*	*	*
1d	cae-	1f	-le-	2r	.
.	.	.	.	2d\	Rex
*	*	*col	*	*	*
!	!	!	!	!LO:TX:t=P:problem=kreska pseudotaktowa	!
2.c\	-le-	2.e\	.	1g	cae-
*	*	*Xlig	*	*	*
4Bny\	.	4d\	.	.	.
*	*	*Xcol	*	*	*
=37-	=37-	=37-	=37-	=37-	=37-
*	*	*	*	*custos:e	*
2A/	.	2c/	.	2f\	-le-
!	!	!	!	!LO:PB:g=original	!
2G/	.	2B/	.	2.e\	.
!LO:TX:b:t=P:problem=# below	!	!	!	!	!
2F#X/	.	2A/	.	.	.
.	.	.	.	4d\	.
!	!	!	!	!LO:TX:t=P::problem=kreska pseudotaktowa&colon;między nutą a kropką	!
2G/	.	2B/	.	2.d\	.
=38-	=38-	=38-	=38-	=38-	=38-
1E	.	2G/	-ſtis	.	.
.	.	.	.	8cny/L	.
.	.	.	.	8B/J	.
*	*	*custos:f	*	*	*
!	!	!	!	!LO:TX:t=P:problem=kreska pseudotaktowa	!
.	.	1g	Rex	2c/	.
2D,</	-ſtis	.	.	1d	-ſtis
!	!	!LO:LB:g=original	!	!	!
*	*ij	*	*	*	*
1d\	Rex	4f\	.	.	.
.	.	4e\	.	.	.
=39-	=39-	=39-	=39-	=39-	=39-
.	.	2f\	cae-	2r	.
2.c\	cae-	2.e\	-le-	1g	Rex
4B\	.	4d\	.	.	.
!	!	!	!	!LO:TX:t=P:problem=kreska pseudotaktowa	!
2G/	-le-	1d\	.	2g\	cae-
=40-	=40-	=40-	=40-	=40-	=40-
1A	.	.	.	2.e\	-le-
!	!	!LO:TX:b:t=P:problem=# below	!	!	!
.	.	2c#X/	.	.	.
.	.	.	.	8d\L	.
!	!	!	!	!LO:TX:t=P:problem=kreska pseudotaktowa	!
.	.	.	.	8e\J	.
!	!	!	!	!LO:TX:a:t=P:problem=# above	!
1D	-ſtis	2d\	-ſtis	4f#X\	.
*	*Xij	*	*	*	*
.	.	.	.	4g\	.
.	.	2d\	De-	4a\	.
!	!	!	!	!LO:TX:t=P:problem=kreska pseudotaktowa	!
!	!	!	!	!LO:TX:a:t=P:problem=# above	!
.	.	.	.	4f#X\	.
=41-	=41-	=41-	=41-	=41-	=41-
2rG	.	2e\	-us	4g\	.
.	.	.	.	4fny\	.
2G/	De-	2g\	Pa-	4e\	.
!	!	!	!	!LO:TX:t=P:problem=kreska pseudotaktowa	!
.	.	.	.	4d\	.
2A/	-us	2f\	-ter	1c	.
*custos:B	*	*	*	*	*
2c\	Pa-	2e\	om-	.	.
!LO:LB:g=original	!	!	!	!	!
=42-	=42-	=42-	=42-	=42-	=42-
*	*	*	*	*custos:c	*
!	!	!	!	!LO:TX:t=P:problem=kreska pseudotaktowa	!
2B\	-ter	2d\	-ni-	1g	-ſtis
2c\	om-	2e\	-po-	.	.
!	!	!	!	!LO:LB:g=original	!
2Fny/	-ni-	1cny	-tens	2r	.
!	!	!	!	!LO:TX:t=P:problem=kreska pseudotaktowa	!
2A/	-po-	.	.	2c/	De-
=43-	=43-	=43-	=43-	=43-	=43-
2G,</	-tens	2r	.	2d\	-us
*	*ij	*	*	*	*
!	!	!	!	!LO:TX:t=P:problem=kreska pseudotaktowa	!
2D/	De-	2d\	De-	2f\	Pa-
2E/	-us	2B/	us	2e\	-ter
!LO:TX:b:t=P:problem=# below	!	!	!	!LO:TX:t=P:problem=kreska pseudotaktowa	!
2F#X/	pa-	2A/	pa-	2d\	om-
=44-	=44-	=44-	=44-	=44-	=44-
2G/	-ter	2B/	-ter	2d\	-ni-
*	*	*custos:A	*	*	*
!	!	!	!	!LO:TX:t=P:problem=kreska pseudotaktowa	!
2C/	om-	2c/	o-	2e\	-po-
!	!	!LO:LB:g=original	!	!	!
2.D/	-ni-	2.A/	-mni-	0d	-tens
4D/	-po-	4A/	-po-	.	.
=45-	=45-	=45-	=45-	=45-	=45-
1G,<	-tens	1B	-tens	.	.
*	*Xij	*	*	*	*
1C	Do-	1e	Do-	1c	Do-
=46-	=46-	=46-	=46-	=46-	=46-
2G/	-mi-	2d\	-mi-	2B/	-mi-
!LO:N:vis=1	!	!	!	!LO:TX:t=P:problem=kreska pseudotaktowa	!
2A/	-ne	2c/	-ne	2A/	-ne
1G	Fi-	1d	Fi-	1B	Fi-
=47-	=47-	=47-	=47-	=47-	=47-
2C/	-li	1e	-li	2c/	-li
*custos:F	*	*	*	*	*
1c	V-	.	.	1e	V-
.	.	0r	.	.	.
!LO:LB:g=original	!	!	!	!LO:TX:t=P:problem=kreska pseudotaktowa	!
2Fny/	-ni-	.	.	2f\	-ni-
=48-	=48-	=48-	=48-	=48-	=48-
2G/	-ge-	.	.	4e\	-ge-
.	.	.	.	4d\	.
!LO:N:vis=1	!	!	!	!	!
2B-X/	-ni-	.	.	1d	.
1A	-te	1r	.	.	.
!	!	!	!	!LO:TX:t=P:problem=kreska pseudotaktowa	!
!	!	!	!	!LO:TX:b:t=P:problem=# below	!
.	.	.	.	2c#X/	-ni-
=49-	=49-	=49-	=49-	=49-	=49-
*	*	*	*	*custos:f	*
2rF	.	2r	.	2d\	-te
!	!	!	!	!LO:LB:g=original	!
1D	Je-	1d	Je-	1f	Je-
!	!	!	!	!LO:TX:t=P:problem=kreska pseudotaktowa	!
2A/	-su	2c/	-su	2e\	-su
=50-	=50-	=50-	=50-	=50-	=50-
*	*	*	*	*lig	*
4F/	Chri-	1f	.	1a	Chri-
4G/	.	.	.	.	.
4A/	.	.	.	.	.
4Bny\	.	.	.	.	.
*	*	*	*	*col	*
2c\	.	2e\	Chri-	2.g\	.
2G/	.	1d\	.	.	.
*	*	*	*	*Xlig	*
.	.	.	.	4f\	.
*	*	*	*	*Xcol	*
=51-	=51-	=51-	=51-	=51-	=51-
1A	.	.	.	1e	.
!	!	!LO:TX:b:t=P:problem=# below	!	!	!
.	.	2c#X/	-ſte	.	.
2D,</	-ſte	2d\	.	1d	-ſte
*lig	*	*lig	*	*	*
1d\	Do-	1f\	Do-	.	.
=52-	=52-	=52-	=52-	=52-	=52-
.	.	.	.	0r	.
1c	.	1e	.	.	.
*Xlig	*	*Xlig	*	*	*
2B\	.	2d\	-mi-	.	.
=53-	=53-	=53-	=53-	=53-	=53-
*	*	*custos:B	*	*	*
2c\	-mi-	2e\	-ne	2rf	.
!	!	!LO:LB:g=original	!	!	!
2d\	-ne	2B/	.	1g	A-
*custos:d	*	*	*	*	*
1e	De-	1cny	De-	.	.
!	!	!	!	!LO:TX:t=P:problem=kreska pseudotaktowa	!
.	.	.	.	2g\	-gnus
!LO:LB:g=original	!	!	!	!	!
=54-	=54-	=54-	=54-	=54-	=54-
1d	-us	1G	-us	2.g\	De-
!	!	!	!	!LO:TX:t=P:problem=kreska pseudotaktowa	!
.	.	.	.	4f\	.
2c\	A-	2A/	A-	2e\	-[[i]]-
2B\	-gnus	2B/	-gnus	2d\	.
=55-	=55-	=55-	=55-	=55-	=55-
1A	De-	1c	De-	2cny/	.
!	!	!	!	!LO:TX:t=P:problem=kreska pseudotaktowa	!
.	.	.	.	2A/	.
0G,<	-i	2B/	-i	2d\	-i
.	.	1d\	Fi-	1B/	Fi-
=56-	=56-	=56-	=56-	=56-	=56-
.	.	.	.	.	.
!	!	!	!	!LO:TX:t=P:problem=kreska pseudotaktowa	!
.	.	2e\	-li-	2B/	-li-
*	*	*	*	*custos:B	*
1A	Fi-	2f\	-us	1c	-us
.	.	2.e\	Pa-	.	.
!	!	!	!	!LO:LB:g=original	!
=57-	=57-	=57-	=57-	=57-	=57-
2G/	-li-	.	.	2B/	Pa-
.	.	4d\	.	.	.
2F/	-us	2.d\	.	2A/	-tris
*lig	*	*	*	*	*
1E	Pa-	.	.	1rc	.
.	.	4c/	.	.	.
.	.	2.c/	.	.	.
=58-	=58-	=58-	=58-	=58-	=58-
1D	.	.	.	1d	Pa-
.	.	8B/L	.	.	.
.	.	8A/J	.	.	.
.	.	2B/	-tris	.	.
*Xlig	*	*	*ij	*	*
1C,<	-tris	1c	Fi-	1G	-tris
=59-	=59-	=59-	=59-	=59-	=59-
1.c	Fi-	1.e	-li-	2r	.
.	.	.	.	1g	Fi-
*	*	*custos:c	*	*	*
!	!	!	!	!LO:TX:t=P:problem=kreska pseudotaktowa	!
2B\	-li-	2d\	-us	2g\	-li-
!	!	!LO:LB:g=original	!	!	!
=60-	=60-	=60-	=60-	=60-	=60-
1A	-us	1c	Pa-	2f\	-us
.	.	.	.	2.e\	Pa-
2.G/	Pa-	2.B/	.	.	.
.	.	.	.	4d\	.
!	!	!	!	!LO:TX:t=P::problem=kreska pseudotaktowa&colon;między nutą a kropką	!
.	.	.	.	2.d\	.
4F/	.	4A/	.	.	.
=61-	=61-	=61-	=61-	=61-	=61-
1E	.	1G	.	.	.
!	!	!	!	!LO:TX:b:t=P:problem=# below	!
.	.	.	.	8c#X/L	.
.	.	.	.	8B/J	.
!	!	!	!	!LO:TX:b:t=P:problem=# below	!
.	.	.	.	2c#X\	.
*custos:d	*	*	*	*custos:f	*
0Dl	-tris.	0Al	-tris	0dl	-tris
*	*	*	*Xij	*	*
!LO:LB:g=original	!	!	!	!LO:LB:g=original	!
=62||	=62||	=62||	=62||	=62||	=62||
*M2/1	*	*M2/1	*	*M2/1	*
*met(C|)	*	*met(C|)	*	*met(C|)	*
!	!	!LO:TX:t=1689 (w inicjałowym Q)	!	!	!
!	!	!LO:TX:b:t=QVi tollis	!	!	!
1.d	QVi	00r	.	1.f	QVi
!LO:TX:b:t=P:problem=# below	!	!	!	!LO:TX:t=P:problem=kreska pseudotaktowa	!
2c#X\	tol-	.	.	2e\	tol-
=63-	=63-	=63-	=63-	=63-	=63-
2d\	-lis	.	.	2f\	-lis
2G/	pec-	.	.	2d\	pec-
2G/	-ca-	.	.	2d\	-ca-
!	!	!	!	!LO:TX:b:t=P:problem=# below	!
!	!	!	!	!LO:TX:t=P:problem=kreska pseudotaktowa	!
2A/	-ta	.	.	2c#X/	-ta
=64-	=64-	=64-	=64-	=64-	=64-
1B-X	mun-	2r	.	1d	mun-
.	.	1d	Mi-	.	.
!	!	!	!	!LO:TX:t=P:problem=kreska pseudotaktowa	!
2A,</	-di	.	.	1e	-di
1A/	Mi-	2c/	-ſe-	.	.
=65-	=65-	=65-	=65-	=65-	=65-
.	.	1B	-re-	2rf	.
2G/	.	.	.	1e	Mi
1F	-ſe-	1A	-re	.	.
!	!	!	!	!LO:TX:t=P:problem=kreska pseudotaktowa	!
.	.	.	.	2d\	-se-
=66-	=66-	=66-	=66-	=66-	=66-
1E	-re-	2.B/	no-	1e	-re-
.	.	4c/	.	.	.
2D/	-re	2d\	.	2f\	-re-
2C/	no-	2e\	.	2g\	.
=67-	=67-	=67-	=67-	=67-	=67-
1F	.	2.f\	.	1a	no-
.	.	4e\	.	.	.
*custos:c	*	*custos:e	*	*	*
!LO:TX:b:t=Qui:w funkcji custosa	!	!	!	!	!
!	!	!	!	!LO:TX:t=P:problem=kreska pseudotaktowa	!
1G	-bis.	1d	.	0g	-bis
!LO:LB:g=original	!	!LO:LB:g=original	!	!	!
=68-	=68-	=68-	=68-	=68-	=68-
2r	.	2e\	-bis	.	.
1cny	Qui	1e	Qui	.	.
.	.	.	.	2rf	.
2Bny\	.	2d\	.	1g\	Qui
=69-	=69-	=69-	=69-	=69-	=69-
2c\	tol-	2e\	.	.	.
*	*	*	*	*custos:g	*
2A/	.	2c/	tol-	2f\	tol-
!	!	!	!	!LO:LB:g=original	!
!	!	!	!	!LO:TX:t=P:problem=kreska pseudotaktowa	!
1G	-lis	2d\	-lis	1g	-lis
.	.	1g\	qui	.	.
=70-	=70-	=70-	=70-	=70-	=70-
2rG	.	.	.	2cny/	.
!	!	!LO:TX:b:t=P:problem=# below	!	!	!
2D/	pec-	2f#X\	.	2.d\	-pec-
1.G	.	2g\	tol-	.	.
.	.	.	.	4c/	.
.	.	2e\	-lis	4B/	-ca-
!	!	!	!	!LO:TX:t=P:problem=kreska pseudotaktowa	!
.	.	.	.	4A/	.
=71-	=71-	=71-	=71-	=71-	=71-
.	.	2d\	pec-	2B/	.
!LO:TX:b:t=P:problem=# below	!	!	!	!	!
4F#X/	-ca-	2.d\	-ca-	4A/	.
!	!	!	!	!LO:TX:t=P:problem=kreska pseudotaktowa	!
4E/	.	.	.	4G/	.
2F#/	.	.	.	2A/	.
.	.	4c/	-ta	.	.
!	!	!	!	!LO:TX:t=P::problem=kreska pseudotaktowa&colon;między nutą a kropką	!
2G/	-ta	4B/	.	2.d\	-ta
.	.	4A/	.	.	.
=72-	=72-	=72-	=72-	=72-	=72-
1E	mun-	1G	.	.	.
!	!	!	!	!LO:TX:b:t=P:problem=# below	!
.	.	.	.	8c#X/L	.
.	.	.	.	8B/J	.
!	!	!	!	!LO:TX:b:t=P:problem=# below	!
.	.	.	.	2c#X/	.
1D	-di	2A/	.	1d	mun-
.	.	1d\	mun-	.	.
=73-	=73-	=73-	=73-	=73-	=73-
1rA	.	.	.	1A	-di
!	!	!LO:TX:b:t=P:problem=# below	!	!	!
.	.	2c#X/	.	.	.
2rG	.	2d\	-di	2rG	.
*	*	*custos:d	*	*	*
1D/	Su-	1d\	Su-	1A/	Sus-
=74-	=74-	=74-	=74-	=74-	=74-
.	.	.	.	.	.
!	!	!LO:LB:g=original	!	!LO:TX:t=P:problem=kreska pseudotaktowa	!
2D/	-sci-	2d\	-Sci-	2A/	-ci-
!	!	!LO:TX:b:t=P:problem=# below	!	!	!
2A,</	-pe	2c#X/	-pe	2A/	-pe
!	!	!	!	!LO:TX:b:t=P:problem=# below	!
1A/	de-	1e\	de-	1c#X/	de-
=75-	=75-	=75-	=75-	=75-	=75-
.	.	.	.	.	.
*	*	*	*	*custos:d	*
2A/	-pre-	2e\	-pre-	2c#X/	-pre-
!	!	!LO:TX:b:t=P:problem=# below	!	!LO:LB:g=original	!
2d\	-ca-	2f#X\	-ca-	2d\	-ca-
*custos:F	*	*	*	*	*
!	!	!	!	!LO:TX:t=P:problem=kreska pseudotaktowa	!
2c\	-ti-	2g\	-ti-	2e\	-ti-
!LO:LB:g=original	!	!	!	!	!
=76-	=76-	=76-	=76-	=76-	=76-
1Fny	-o-	1a	-o-	2.f\	-o-
.	.	.	.	8e\L	.
!	!	!	!	!LO:TX:t=P:problem=kreska pseudotaktowa	!
.	.	.	.	8d\J	.
1G	-nem	1g	-nem	2e\	.
.	.	.	.	1d\	nem
=77-	=77-	=77-	=77-	=77-	=77-
1A	no-	1e	no-	.	.
!	!	!	!	!LO:TX:b:t=P:problem=# below	!
.	.	.	.	2c#X/	no-
!LO:TX:a:t=P:problem=pojedyncza kreska taktowa	!	!LO:TX:a:t=P:problem=brak kreski taktowej	!	!LO:TX:a:t=P:problem=brak kreski taktowej	!
0D	-ſtram.	0f#X	-ſtram	0d	-ſtram
=78||	=78||	=78||	=78||	=78||	=78||
*M3/1	*	*M3/1	*	*M3/1	*
0D	Qui	0f#X	Qui	0d	Qui
1E	ſe-	1g	ſe-	1G	ſe-
=79-	=79-	=79-	=79-	=79-	=79-
0D	-des	0fny	-des	0d	-des
1A	ad	1e	ad	1c	ad
=80-	=80-	=80-	=80-	=80-	=80-
*	*	*col	*	*	*
0d	dex-	0d	dex-	0f	dex-
*	*	*custos:g	*	*	*
1c	-te-	1g	-te-	1e	-te-
!	!	!LO:PB:g=original	!	!	!
=81-	=81-	=81-	=81-	=81-	=81-
1G	-ram	1g	-ram	0d	-ram
0A	Pa-	0e	Pa-	.	.
!	!	!	!	!LO:TX:b:t=P:problem=# below	!
.	.	.	.	1c#X	Pa-
*	*	*Xcol	*	*	*
!	!	!	!	!LO:PB:g=original	!
=82-	=82-	=82-	=82-	=82-	=82-
!	!	!LO:TX:b:t=P:problem=# below	!	!	!
0.D	-tris	0f#X	-tris	0d	-tris
!	!	!LO:N:vis=0	!	!	!
.	.	0.r	.	1d	Mi-
=83-	=83-	=83-	=83-	=83-	=83-
1G	Mi-	.	.	1e	-ſe-
!	!	!	!	!LO:TX:b:t=P:problem=# below	!
1A	.	.	.	1f#X	-re-
*custos:c	*	*	*	*	*
!	!	!	!	!LO:TX:t=P::problem=kreska pseudotaktowa&colon;między nutą a kropką	!
1B	-ſe-	1r	.	1.g	-re
!LO:LB:g=original	!	!	!	!	!
=84-	=84-	=84-	=84-	=84-	=84-
0c	-re-	1r	.	.	.
.	.	.	.	2fny\	no-
.	.	1r	.	1e	.
*	*	*	*	*lig	*
!	!	!	!	!LO:TX:t=P:problem=kreska pseudotaktowa	!
1B	-re	1d	Mi-	1d	.
=85-	=85-	=85-	=85-	=85-	=85-
0A	no-	1e	-se-	0cny	.
!	!	!LO:TX:b:t=P:problem=# below	!	!	!
.	.	1f#X	-re-	.	.
*	*	*col	*	*Xlig	*
!	!	!	!	!LO:TX:t=P:problem=kreska pseudotaktowa przez środek nuty	!
1G	-bis	0g	-re	0.d	-bis
=86-	=86-	=86-	=86-	=86-	=86-
1rG	.	.	.	.	.
1D	Mi-	1fny	.	.	.
!	!	!	!	!LO:TX:t=P:problem=kreska pseudotaktowa	!
1E	.	1e	no-	1r	.
*	*	*Xcol	*	*	*
=87-	=87-	=87-	=87-	=87-	=87-
!LO:TX:t=P:problem=# above	!	!	!	!	!
1F#X	-ſe-	0.d	-bis	1A	Mi-
0G	.	.	.	1.B	-ſe-
.	.	.	.	.	.
.	.	.	.	2c/	-re-
=88-	=88-	=88-	=88-	=88-	=88-
*	*	*	*ij	*	*
1Fny	.	1A	Mi-	1d	-re
0E	.	1B	-se-	0e	.
!	!	!LO:TX:b:t=P:problem=# below	!	!	!
.	.	1c#	.	.	.
=89-	=89-	=89-	=89-	=89-	=89-
*	*	*col	*	*	*
1D	.	0d	-re-	1a	no-
*	*	*	*	*custos:g	*
0A	.	.	.	0a	.
.	.	1cny	.	.	.
!	!	!	!	!LO:LB:g=original	!
=90-	=90-	=90-	=90-	=90-	=90-
1B-X	-re	1d	-re	1g	.
*	*	*custos:d	*	*	*
0A	no-	0e	no-	0a	.
*	*	*Xcol	*	*	*
!	!	!LO:LB:g=original	!	!	!
=91-	=91-	=91-	=91-	=91-	=91-
*M2/1	*	*M2/1	*	*M2/1	*
*met(C|)	*	*met(C|)	*	*met(C|)	*
!	!	!	!	!LO:TX:b:t=P:problem=# below	!
1D,<	-bis.	0d	-bis	1f#X	-bis
*	*	*	*Xij	*	*
1.G	Quo-	.	.	1rc	.
=92-	=92-	=92-	=92-	=92-	=92-
.	.	00r	.	1.d	Quo-
*custos:G	*	*	*	*	*
!LO:TX:b:t=P:problem=# below	!	!	!	!	!
2F#X/	-ni-	.	.	.	.
!LO:LB:g=original	!	!	!	!	!
2G/	-am	.	.	.	.
!	!	!	!	!LO:TX:b:t=P:problem=# below	!
2E/	tu	.	.	2c#X/	-ni-
=93-	=93-	=93-	=93-	=93-	=93-
!LO:TX:b:t=P:problem=# below	!	!	!	!	!
2F#X/	ſo-	.	.	2d\	-am
2G/	-l(us)	.	.	2B/	tu
1A	ſan-	.	.	2.cny/	ſo-
.	.	.	.	4d\	-lus
=94-	=94-	=94-	=94-	=94-	=94-
2G,</	-ctus	2rB	.	1e	ſan-
2C/	tu	1c	Quo-	.	.
2D/	ſo-	.	.	1d	-ctus
2G/	-lus	2B/	-ni-	.	.
=95-	=95-	=95-	=95-	=95-	=95-
*lig	*	*	*	*	*
1Fny	ſan-	2c/	-am	2rB	.
.	.	2A/	tu	2d\	Tu
1E	.	2B/	So-	2e\	ſo-
!	!	!LO:TX:b:t=P:problem=# below	!	!	!
.	.	2c#X/	-lus	2e\	-lus
*Xlig	*	*Xcol	*	*	*
=96-	=96-	=96-	=96-	=96-	=96-
2D,</	-ctus	2.d\	San-	2.fny\	San-
*	*ij	*	*	*	*
2D/	tu	.	.	.	.
.	.	4cny/	.	4e\	.
2G/	ſo-	2B/	.	2d\	.
*	*	*	*	*custos:d	*
2C/	-lus	2c/	.	2e\	.
!	!	!	!	!LO:LB:g=original	!
=97-	=97-	=97-	=97-	=97-	=97-
1D	ſan-	1A	.	1d	.
!	!	!LO:TX:t=P:global:problem=rozdzielacz słów	!	!	!
2G,</	-ctus	2G,</	-ctus	2d\	-ctus
*	*Xij	*	*	*	*
2G/	tu	2d\	tu	2B/	tu
=98-	=98-	=98-	=98-	=98-	=98-
2F/	ſo-	2f\	So-	2c/	ſo-
*custos:E	*	*	*	*	*
2D/	-lus	2f\	-lus	2d\	-lus
!LO:LB:g=original	!	!	!	!	!
2.E/	Do-	1.g	Do-	4c/	Do-
.	.	.	.	8B/L	.
.	.	.	.	8A/J	.
.	.	.	.	4B/	.
4E/	-mi-	.	.	4G/	-mi-
=99-	=99-	=99-	=99-	=99-	=99-
1D	-nus	.	.	1ryy	.
*	*	*custos:g	*	*	*
.	.	2f#X\	-mi-	.	.
*	*	*Xcol	*	*	*
!	!	!LO:LB:g=original	!	!	!
2rG	.	2g\	-nus	2d\	-nus
2G/	Tu	2d\	Tu	2B/	tu
=100-	=100-	=100-	=100-	=100-	=100-
1A	ſo-	1c	So-	2c/	ſo-
.	.	.	.	2A/	-lus
2G/	-lus	2d\	-lus	1B	al-
2G/	Al-	2d\	Al-	.	.
=101-	=101-	=101-	=101-	=101-	=101-
2.c\	-tiſ-	1.e	-tiſ-	1.c	-tiſ-
4Bny\	.	.	.	.	.
2A/	.	.	.	.	.
2A/	-Si-	2fny\	-si-	2c/	-ſi-
=102-	=102-	=102-	=102-	=102-	=102-
1G,<	-mus	1g	-mus	1d	-mus
0F	Je-	0a	Je-	0f	Je-
=103-	=103-	=103-	=103-	=103-	=103-
.	.	.	.	.	.
*	*	*	*	*custos:d	*
1c	-Su	1g	-su	1e	-su
!	!	!	!	!LO:LB:g=original	!
=104-	=104-	=104-	=104-	=104-	=104-
1G	Chri-	2.g\	Chri-	1.d	Chri-
.	.	4f\	.	.	.
0A	.	0e	.	.	.
!	!	!	!	!LO:TX:b:t=P:problem=# below	!
.	.	.	.	4c#X/	.
.	.	.	.	4B/	.
=105-	=105-	=105-	=105-	=105-	=105-
!	!	!	!	!LO:TX:b:t=P:problem=# below	!
.	.	.	.	1c#X	.
0.D	-ſte	2d\	-ſte	1d	-ſte
.	.	1a\	.	.	.
=106-	=106-	=106-	=106-	=106-	=106-
.	.	.	.	2r	.
.	.	2.f\	Cum	1a	Cum
.	.	4e\	.	.	.
.	.	1d\	San-	1f\	.
=107-	=107-	=107-	=107-	=107-	=107-
*custos:F	*	*	*	*	*
1A	Cum	.	.	.	.
.	.	4c/	.	2e\	.
*	*	*custos:A	*	*	*
.	.	4B/	.	.	.
!LO:LB:g=original	!	!LO:LB:g=original	!	!	!
2.F/	San-	2.A/	.	2d\	San-
.	.	.	.	2cny/	.
4E/	.	4G/	.	.	.
=108-	=108-	=108-	=108-	=108-	=108-
2D/	.	2A/	.	2d\	.
2C,</	-cto	2c/	-cto	2e\	-cto
2.F/	Spi-	2.c/	Spi-	2.f\	Spi-
4F/	-ri-	4c/	-ri-	4f\	-ri-
=109-	=109-	=109-	=109-	=109-	=109-
2G,</	-tu	1B	-tu	2d\	-tu
2G/	in	.	.	2d\	in
1.c	glo-	0r	.	1.e	glo-
=110-	=110-	=110-	=110-	=110-	=110-
.	.	.	.	.	.
2B\	-ri-	.	.	2d\	-ri-
*	*	*	*	*custos:g	*
2c\	-a	2r	.	2e\	-a
!	!	!	!	!LO:LB:g=original	!
1G/	De-	2d\	in	2.g\	De-
=111-	=111-	=111-	=111-	=111-	=111-
.	.	1.g	glo-	.	.
.	.	.	.	8f\L	.
.	.	.	.	8e\J	.
2B-X\	-i	.	.	2d\	.
1A	Pa-	.	.	2e\	.
.	.	2f\	-ri-	2c/	-i
=112-	=112-	=112-	=112-	=112-	=112-
1G	-tris	2g\	-a	1d	Pa-
.	.	2d\	De-	.	.
0rG	.	2e\	-i	2c/	tris
.	.	4c/	Pa-	1c/	De-
.	.	4d\	.	.	.
=113-	=113-	=113-	=113-	=113-	=113-
.	.	4e\	.	.	.
.	.	4f\	.	.	.
.	.	2.g\	.	2G/	-i
2rG	.	.	.	1d	Pa-
!	!	!LO:TX:b:t=P:problem=# below	!	!	!
.	.	8f#X\L	.	.	.
*	*	*Xcol	*	*	*
.	.	8e\J	.	.	.
*	*	*custos:g	*	*	*
!	!	!LO:TX:b:t=P:problem=# below	!	!	!
2D/	in	2f#X\	.	.	.
*	*	*Xcol	*	*	*
!	!	!LO:LB:g=original	!	!	!
=114-	=114-	=114-	=114-	=114-	=114-
1.G	glo-	2g\	-tris	0d	-tris
.	.	2G/	in	.	.
.	.	2B/	glo-	.	.
!LO:TX:b:t=P:problem=# below	!	!	!	!	!
2F#X/	-ri-	2A/	-ri-	.	.
=115-	=115-	=115-	=115-	=115-	=115-
2G/	-a	2B/	-a	2rA	.
1D	De-	2.d\	De-	2A/	in
.	.	.	.	1.d	glo-
.	.	8c\L	.	.	.
.	.	8B\J	.	.	.
2Fny/	-i	2A/	.	.	.
=116-	=116-	=116-	=116-	=116-	=116-
1E	Pa-	2B/	-i	.	.
.	.	2G/	Pa-	2c/	-ri-
*custos:G	*	*	*	*	*
!LO:TX:b:t=Dei P(at)ris:w funkcji custosa	!	!	!	!	!
1D	-tris,	1A	-tris	2d\	-a
.	.	.	.	2A/	De-
!LO:PB:g=original	!	!	!	!	!
=117-	=117-	=117-	=117-	=117-	=117-
2rG	.	4G/	A-	2B/	-i
.	.	4A/	.	.	.
1G	De-	4B/	.	4G/	Pa-
*	*	*	*	*custos:B	*
.	.	4c/	.	4A/	.
!	!	!	!	!LO:LB:g=original	!
.	.	2d\	.	4B/	.
.	.	.	.	4c/	.
2F/	-i	2A/	-men	1d\	-tris
=118-	=118-	=118-	=118-	=118-	=118-
2G/	Pa-	1rc	.	.	.
!	!	!	!	!LO:TX:b:t=P:problem=# below	!
2A/	.	.	.	2c#X/	.
1D	-tris	2rB	.	4d\	A-
.	.	.	.	4cny/	.
.	.	2.d\	A-	4B/	.
.	.	.	.	4A/	.
=119-	=119-	=119-	=119-	=119-	=119-
2.G/	A-	.	.	2B/	.
.	.	4c/	.	.	.
.	.	4B/	.	2G/	-men
*	*	*custos:G	*	*	*
4F/	.	4A/	.	.	.
!	!	!LO:LB:g=original	!	!	!
4E/	.	2G/	.	2.g\	A-
4D/	.	.	.	.	.
2C/	.	2.g\	.	.	.
.	.	.	.	4f\	.
=120-	=120-	=120-	=120-	=120-	=120-
2.c\	.	.	.	4e\	.
.	.	4fny\	.	4d\	.
.	.	4e\	.	1e	.
4Bny\	.	4d\	.	.	.
4A/	.	1.c	.	.	.
4G/	.	.	.	.	.
1F/	.	.	.	2.f\	.
=121-	=121-	=121-	=121-	=121-	=121-
.	.	.	.	.	.
.	.	.	.	4e\	.
2G/	.	2B/	.	4d\	.
.	.	.	.	4c/	.
1D	.	1A	.	1d	-men
=122-	=122-	=122-	=122-	=122-	=122-
*	*	*	*	*	*ij
1G	-men	2G/	-men	2.d\	A-
.	.	2.d\	A-	.	.
.	.	.	.	4c/	.
2.G/	A-	.	.	4B/	.
*	*	*	*	*custos:G	*
.	.	4c/	.	4A/	.
!	!	!	!	!LO:LB:g=original	!
.	.	2.B/	.	2G/	-men
*	*	*	*	*	*Xij
4F/	.	.	.	.	.
=123-	=123-	=123-	=123-	=123-	=123-
2.E/	.	.	.	2.g\	A-
.	.	4A/	.	.	.
.	.	1G	.	.	.
4D/	.	.	.	4f\	.
1C	.	.	.	1e	.
.	.	1c/	.	.	.
=124-	=124-	=124-	=124-	=124-	=124-
0.Gl;;	-men.	.	.	0.dl	-men
.	.	4B/	.	.	.
.	.	4A/	.	.	.
.	.	0Bl	-men.	.	.
==	==	==	==	==	==
*-	*-	*-	*-	*-	*-
!!!system-decoration: [s1,s2,s3]
!!!RDF**kern: < = below
!!!RDF**kern: l = terminal long
!!!AIN: 1 empty 1 tenor 1 vox
!!!ENC: Marta Lawrence
!!!END: 2021-03-24
!!!ENC: Kamil Watkowski
!!!END: 2021-03-09
